svg/fluentui-system-icons/ic_fluent_chart_person_48_regular.svg

<svg width="48" height="48" viewBox="0 0 48 48" fill="none" xmlns="http://www.w3.org/2000/svg">
<path d="M25 5.25C25 4.55964 24.4404 4 23.75 4C23.0596 4 22.5 4.55964 22.5 5.25V6H9.25C6.35051 6 4 8.3505 4 11.25V31.75C4 34.6495 6.35051 37 9.25 37H15.8566L11.3315 41.9021C10.8632 42.4094 10.8949 43.2002 11.4022 43.6685C11.9094 44.1367 12.7003 44.1051 13.1685 43.5978L19.1685 37.0978C19.1976 37.0663 19.2248 37.0336 19.2501 37H26.4151C26.8921 35.9074 27.7484 35.019 28.8172 34.5H9.25C7.73122 34.5 6.5 33.2688 6.5 31.75V11.25C6.5 9.73122 7.73122 8.5 9.25 8.5H38.75C40.2688 8.5 41.5 9.73122 41.5 11.25V23.6379C43.0285 24.922 44 26.8475 44 29V11.25C44 8.3505 41.6495 6 38.75 6H25V5.25ZM12.25 13.5C11.5596 13.5 11 14.0596 11 14.75C11 15.4404 11.5596 16 12.25 16H21.75C22.4404 16 23 15.4404 23 14.75C23 14.0596 22.4404 13.5 21.75 13.5H12.25ZM11 21.75C11 21.0596 11.5596 20.5 12.25 20.5H26.75C27.4404 20.5 28 21.0596 28 21.75C28 22.4404 27.4404 23 26.75 23H12.25C11.5596 23 11 22.4404 11 21.75ZM11 28.75C11 28.0596 11.5596 27.5 12.25 27.5H23.75C24.4404 27.5 25 28.0596 25 28.75C25 29.4404 24.4404 30 23.75 30H12.25C11.5596 30 11 29.4404 11 28.75ZM42 29C42 31.7614 39.7614 34 37 34C34.2386 34 32 31.7614 32 29C32 26.2386 34.2386 24 37 24C39.7614 24 42 26.2386 42 29ZM46 39.5C46 43 42.85 46 37 46C31.15 46 28 43 28 39.5V38.9977C28 37.3408 29.3431 36 31 36H43C44.6569 36 46 37.3408 46 38.9977V39.5Z" fill="#212121"/>
</svg>

<svg xmlns="http://www.w3.org/2000/svg" width="48" height="48"><path d="M25 5.25a1.25 1.25 0 1 0-2.5 0V6H9.25A5.25 5.25 0 0 0 4 11.25v20.5C4 34.65 6.35 37 9.25 37h6.607l-4.525 4.902a1.25 1.25 0 1 0 1.836 1.696l6-6.5A1.27 1.27 0 0 0 19.25 37h7.165a5.016 5.016 0 0 1 2.402-2.5H9.25a2.75 2.75 0 0 1-2.75-2.75v-20.5A2.75 2.75 0 0 1 9.25 8.5h29.5a2.75 2.75 0 0 1 2.75 2.75v12.388A6.985 6.985 0 0 1 44 29V11.25C44 8.35 41.65 6 38.75 6H25v-.75ZM12.25 13.5a1.25 1.25 0 1 0 0 2.5h9.5a1.25 1.25 0 1 0 0-2.5h-9.5ZM11 21.75c0-.69.56-1.25 1.25-1.25h14.5a1.25 1.25 0 1 1 0 2.5h-14.5c-.69 0-1.25-.56-1.25-1.25Zm0 7c0-.69.56-1.25 1.25-1.25h11.5a1.25 1.25 0 1 1 0 2.5h-11.5c-.69 0-1.25-.56-1.25-1.25ZM42 29a5 5 0 1 1-10 0 5 5 0 0 1 10 0Zm4 10.5c0 3.5-3.15 6.5-9 6.5s-9-3-9-6.5v-.502A2.998 2.998 0 0 1 31 36h12c1.657 0 3 1.34 3 2.998v.502Z"/></svg>
